svgs/thin/not-equal.svg

<svg xmlns="http://www.w3.org/2000/svg" viewBox="0 0 448 512"><!--! Font Awesome Pro 6.3.0 by @fontawesome - https://fontawesome.com License - https://fontawesome.com/license (Commercial License) Copyright 2023 Fonticons, Inc. --><path d="M448 343.1c0 4.422-3.594 8-8 8H166.2l-87.69 124.6C77 478.8 74.5 480 72 480c-1.594 0-3.219-.4687-4.594-1.453c-3.625-2.547-4.5-7.531-1.938-11.16l81.2-115.4H8c-4.406 0-8-3.578-8-8c0-4.422 3.594-8 8-8h149.9l112.6-160H8c-4.406 0-8-3.578-8-8s3.594-8 8-8h273.8l87.69-124.6c2.5-3.609 7.594-4.453 11.12-1.938c3.625 2.547 4.5 7.531 1.938 11.16l-81.2 115.4H440c4.406 0 8 3.578 8 8s-3.594 8-8 8h-149.9l-112.6 160H440C444.4 335.1 448 339.6 448 343.1z"/></svg>

<svg xmlns="http://www.w3.org/2000/svg" viewBox="0 0 448 512"><!-- Font Awesome Pro 6.0.0-alpha2 by @fontawesome - https://fontawesome.com License - https://fontawesome.com/license (Commercial License) --><path d="M448 343.998C448 348.42 444.406 351.998 440 351.998H166.219L78.531 476.609C77 478.812 74.5 480 72 480C70.406 480 68.781 479.531 67.406 478.547C63.781 476 62.906 471.015 65.469 467.39L146.67 351.998H8C3.594 351.998 0 348.42 0 343.998C0 339.576 3.594 335.998 8 335.998H157.93L270.521 175.995H8C3.594 175.995 0 172.417 0 167.995S3.594 159.995 8 159.995H281.781L369.469 35.383C371.969 31.774 377.063 30.93 380.594 33.446C384.219 35.993 385.094 40.977 382.531 44.602L301.33 159.995H440C444.406 159.995 448 163.573 448 167.995S444.406 175.995 440 175.995H290.07L177.479 335.998H440C444.406 335.998 448 339.576 448 343.998Z"/></svg>
